public/icon/icon-search.svg

<svg width="21" height="21" viewBox="0 0 21 21" fill="none" xmlns="http://www.w3.org/2000/svg">
<path fill-rule="evenodd" clip-rule="evenodd" d="M2.75 9.20072C2.75 5.62427 5.61176 2.75 9.11126 2.75C12.6108 2.75 15.4725 5.62427 15.4725 9.20072C15.4725 12.7772 12.6108 15.6514 9.11126 15.6514C5.61176 15.6514 2.75 12.7772 2.75 9.20072ZM9.11126 0.25C4.20359 0.25 0.25 4.27119 0.25 9.20072C0.25 14.1303 4.20359 18.1514 9.11126 18.1514C11.075 18.1514 12.886 17.5076 14.352 16.4194L18.4316 20.1717C18.9397 20.639 19.7305 20.606 20.1978 20.0979C20.6652 19.5898 20.6321 18.799 20.124 18.3316L16.133 14.6608C17.2872 13.148 17.9725 11.2531 17.9725 9.20072C17.9725 4.27119 14.0189 0.25 9.11126 0.25Z" fill="#ABB910"/>
</svg>

<svg width="21" height="21" fill="none" xmlns="http://www.w3.org/2000/svg"><path fill-rule="evenodd" clip-rule="evenodd" d="M2.75 9.2c0-3.576 2.862-6.45 6.361-6.45 3.5 0 6.361 2.874 6.361 6.45 0 3.577-2.861 6.451-6.36 6.451-3.5 0-6.362-2.874-6.362-6.45zM9.111.25C4.204.25.25 4.271.25 9.2c0 4.93 3.954 8.951 8.861 8.951a8.758 8.758 0 005.241-1.732l4.08 3.753a1.25 1.25 0 001.692-1.84l-3.991-3.671a8.975 8.975 0 001.84-5.46C17.973 4.27 14.018.25 9.11.25z" fill="#ABB910"/></svg>
